assets/1. P-Z/World map/Color/World.Map-color.svg

<svg width="100%" height="100%" viewBox="0 0 32 32" fill="none" xmlns="http://www.w3.org/2000/svg">
<g filter="url(#filter0_i_18_4830)">
<path d="M2.57505 5.33487L8.75071 3.57314C8.93003 3.52198 9.12008 3.52198 9.2994 3.57315L15.7559 5.41524C15.9354 5.46645 16.1256 5.46641 16.305 5.41513L22.7501 3.57344C22.9298 3.52209 23.1203 3.52213 23.3 3.57354L29.455 5.33487C29.755 5.41487 29.965 5.68487 29.965 5.99487V27.8149C29.965 28.2549 29.545 28.5849 29.115 28.4749L23.3245 26.5922C23.1354 26.5308 22.9322 26.5271 22.741 26.5816L16.3101 28.4164C16.1303 28.4677 15.9398 28.4676 15.7601 28.4161L9.31905 26.5692C9.12744 26.5142 8.92377 26.5178 8.7342 26.5795L2.90505 28.4749C2.47505 28.5849 2.05505 28.2549 2.05505 27.8149V5.99487C2.05505 5.68487 2.27505 5.41487 2.57505 5.33487Z" fill="url(#paint0_linear_18_4830)"/>
</g>
<g filter="url(#filter1_ii_18_4830)">
<path d="M2.57505 5.33487L8.75071 3.57314C8.93003 3.52198 9.12008 3.52198 9.2994 3.57315L15.7559 5.41524C15.9354 5.46645 16.1256 5.46641 16.305 5.41513L22.7501 3.57344C22.9298 3.52209 23.1203 3.52213 23.3 3.57354L29.455 5.33487C29.755 5.41487 29.965 5.68487 29.965 5.99487V27.8149C29.965 28.2549 29.545 28.5849 29.115 28.4749L23.3245 26.5922C23.1354 26.5308 22.9322 26.5271 22.741 26.5816L16.3101 28.4164C16.1303 28.4677 15.9398 28.4676 15.7601 28.4161L9.31905 26.5692C9.12744 26.5142 8.92377 26.5178 8.7342 26.5795L2.90505 28.4749C2.47505 28.5849 2.05505 28.2549 2.05505 27.8149V5.99487C2.05505 5.68487 2.27505 5.41487 2.57505 5.33487Z" fill="url(#paint1_linear_18_4830)"/>
</g>
<path d="M4.005 6.83487L8.63896 5.62144C8.89825 5.55354 9.171 5.55636 9.42883 5.6296L15.5869 7.37895C15.8537 7.45475 16.1364 7.45507 16.4034 7.37986L22.63 5.62615C22.8886 5.55332 23.162 5.55128 23.4216 5.62024L27.995 6.83488C28.295 6.91488 28.505 7.18489 28.505 7.49489V25.6674C28.505 25.8861 28.391 26.183 28.0394 26.0893L23.441 24.6261C23.1601 24.5367 22.8592 24.5321 22.5757 24.6127L16.4072 26.3676C16.1378 26.4443 15.8523 26.4439 15.5831 26.3667L9.46066 24.6099C9.17997 24.5294 8.88188 24.5325 8.60296 24.6189L4.16052 25.9955C3.82458 26.0775 3.495 25.8986 3.495 25.4486V7.49487C3.495 7.18487 3.705 6.91487 4.005 6.83487Z" fill="url(#paint2_linear_18_4830)"/>
<path d="M14.905 15.6049L14.375 16.1349C14.145 16.3649 14.025 16.6649 14.025 16.9849C14.025 17.3049 14.155 17.6149 14.375 17.8349L14.905 18.3649C14.985 18.4449 15.085 18.4849 15.195 18.4849H15.625C15.845 18.4849 16.025 18.6649 16.025 18.8849V21.0749C16.025 21.2949 16.205 21.4749 16.425 21.4749H16.855C16.965 21.4749 17.065 21.4349 17.145 21.3549L17.555 20.9449C17.855 20.6449 18.025 20.2349 18.025 19.8049V18.5649C18.025 18.5049 18.035 18.4449 18.065 18.3849L18.975 16.5549C19.005 16.4949 19.015 16.4349 19.015 16.3749V15.8749C19.015 15.6549 19.195 15.4749 19.415 15.4749H19.605C19.825 15.4749 20.005 15.6549 20.005 15.8749V16.0649C20.005 16.2849 20.185 16.4649 20.405 16.4649H20.595C20.815 16.4649 20.995 16.2849 20.995 16.0649V15.8749C20.995 15.6549 21.175 15.4749 21.395 15.4749H21.585C21.805 15.4749 21.985 15.6549 21.985 15.8749V16.0649C21.985 16.2849 22.165 16.4649 22.385 16.4649H23.505C23.665 16.4649 23.815 16.3649 23.875 16.2149L24.755 14.0249C24.865 13.7649 24.665 13.4749 24.385 13.4749C24.165 13.4749 23.985 13.2949 23.985 13.0749V11.8849C23.985 11.6649 24.165 11.4849 24.385 11.4849H24.575C24.795 11.4849 24.975 11.6649 24.975 11.8849V11.9849C24.975 12.2649 25.195 12.4849 25.475 12.4849C25.755 12.4849 25.975 12.2649 25.975 11.9849V10.0449C25.975 9.18486 25.275 8.49486 24.425 8.49486H24.385C24.165 8.49486 23.985 8.67487 23.985 8.89487V9.08485C23.985 9.30485 23.805 9.48486 23.585 9.48486H22.395C22.175 9.48486 21.995 9.30485 21.995 9.08485C21.995 8.75485 21.725 8.48486 21.395 8.48486H20.995C20.445 8.48486 19.995 8.93486 19.995 9.48486V9.51486C19.995 9.62486 19.945 9.73487 19.865 9.81487L18.115 11.3849C18.045 11.4549 17.945 11.4849 17.845 11.4849H16.405C16.185 11.4849 16.005 11.6649 16.005 11.8849V12.0749C16.005 12.2949 15.825 12.4749 15.605 12.4749H15.415C15.195 12.4749 15.015 12.6549 15.015 12.8749V14.0649C15.015 14.2849 15.195 14.4649 15.415 14.4649H15.605C15.825 14.4649 16.005 14.6449 16.005 14.8649V15.0549C16.005 15.2749 15.825 15.4549 15.605 15.4549H15.175C15.085 15.4949 14.985 15.5349 14.905 15.6049Z" fill="url(#paint3_linear_18_4830)"/>
<path d="M10.525 22.4849C10.805 22.4849 11.025 22.2649 11.025 21.9849V20.8449C11.025 20.6249 11.145 20.4249 11.345 20.3249L12.575 19.7049C12.845 19.5649 13.025 19.2849 13.025 18.9849C13.025 18.6749 12.855 18.3949 12.575 18.2649L11.405 17.6849C11.155 17.5549 10.875 17.4949 10.595 17.4949H10.155C10.075 17.4949 9.99505 17.4649 9.93505 17.4049L8.11505 15.5849C8.05505 15.5249 8.02505 15.4449 8.02505 15.3649V14.8049C8.02505 14.6349 8.16504 14.4949 8.33504 14.4949H8.71505C8.88505 14.4949 9.02505 14.6349 9.02505 14.8049V14.9949C9.02505 15.2749 9.24505 15.4949 9.52505 15.4949C9.80505 15.4949 10.025 15.2749 10.025 14.9949V14.8049C10.025 14.6349 10.165 14.4949 10.335 14.4949C10.775 14.4949 11.205 14.3149 11.515 14.0049L11.805 13.7149C11.925 13.5949 11.925 13.3949 11.805 13.2749L11.115 12.5849C11.055 12.5249 11.025 12.4449 11.025 12.3649V11.9949C11.025 11.7149 10.805 11.4949 10.525 11.4949C10.245 11.4949 10.025 11.7149 10.025 11.9949C10.025 12.2749 9.80505 12.4949 9.52505 12.4949C9.24505 12.4949 9.02505 12.2749 9.02505 11.9949V11.8049C9.02505 11.6349 9.16504 11.4949 9.33504 11.4949C9.51504 11.4949 9.65505 11.3449 9.64505 11.1749L9.62505 10.8249C9.61505 10.6449 9.75505 10.5049 9.93505 10.5049H10.715C10.885 10.5049 11.025 10.3649 11.025 10.1949V10.0049C11.025 9.72488 11.245 9.50488 11.525 9.50488C11.805 9.50488 12.025 9.72488 12.025 10.0049V12.0049C12.025 12.2849 12.245 12.5049 12.525 12.5049C12.805 12.5049 13.025 12.2849 13.025 12.0049V11.6349C13.025 11.5549 13.055 11.4749 13.115 11.4149L13.525 11.0049C13.845 10.6849 14.025 10.2549 14.025 9.80487C14.025 9.08487 13.445 8.50488 12.725 8.50488H11.125C10.425 8.50488 9.75505 8.79487 9.27505 9.30487L8.65504 9.97487C8.34504 10.3149 7.90505 10.5049 7.44505 10.5049H7.34505C7.17505 10.5049 7.03505 10.3649 7.03505 10.1949C7.03505 9.81487 6.72505 9.50488 6.34505 9.50488H5.72504C5.34504 9.50488 5.03505 9.81487 5.03505 10.1949V10.5649C5.03505 11.1649 4.79505 11.7449 4.37505 12.1649L4.13504 12.4049C4.07504 12.4649 4.04504 12.5449 4.04504 12.6249V12.7549C4.04504 13.0349 4.37505 13.1649 4.57505 12.9749L5.83504 11.7149C5.96504 11.5849 6.14504 11.5049 6.33504 11.5049C6.72504 11.5049 6.04504 11.8249 6.04504 12.2149V14.5749C6.04504 15.1749 7.28504 15.7449 7.70504 16.1649L8.95504 17.4149C9.01504 17.4749 9.04504 17.5549 9.04504 17.6349V18.7549C9.04504 19.2349 9.23505 19.7049 9.57505 20.0449L9.95504 20.4249C10.015 20.4849 10.045 20.5649 10.045 20.6449V22.0149C10.025 22.2649 10.255 22.4849 10.525 22.4849Z" fill="url(#paint4_linear_18_4830)"/>
<path d="M22.025 17.7948V18.0049C22.025 18.3149 22.135 18.6148 22.325 18.8548L22.535 19.1048C22.835 19.4748 23.325 19.6449 23.785 19.5349C23.925 19.5049 24.025 19.3748 24.025 19.2348V18.8649C24.025 18.7049 24.145 18.5748 24.295 18.5548L24.445 18.5349C24.755 18.5049 25.025 18.7448 25.025 19.0548C25.025 19.2948 25.195 19.5148 25.435 19.5648L25.655 19.6149C25.845 19.6549 26.025 19.5148 26.025 19.3148V18.4748C26.025 17.9248 25.575 17.4748 25.025 17.4748H24.165C24.075 17.4748 23.995 17.5148 23.935 17.5748L23.565 17.9848C23.375 18.1948 23.025 18.0648 23.025 17.7748C23.025 17.6048 22.885 17.4648 22.715 17.4648H22.335C22.165 17.4848 22.025 17.6248 22.025 17.7948Z" fill="url(#paint5_linear_18_4830)"/>
<path d="M23.025 21.3249V21.9949C23.025 22.2749 23.245 22.4949 23.525 22.4949C23.805 22.4949 25.245 22.4949 25.525 22.4949C25.805 22.4949 26.025 22.2749 26.025 21.9949V21.0449C26.025 20.7349 25.775 20.4849 25.465 20.4849H23.855C23.395 20.4849 23.025 20.8649 23.025 21.3249Z" fill="url(#paint6_linear_18_4830)"/>
<g filter="url(#filter2_f_18_4830)">
<path d="M16.4315 5.82153L22.869 3.93091" stroke="#EAE4EE" stroke-width="0.15" stroke-linecap="round"/>
</g>
<g filter="url(#filter3_f_18_4830)">
<path d="M2.69727 5.76563L8.84759 3.9812" stroke="#EAE4EE" stroke-width="0.15" stroke-linecap="round"/>
</g>
<defs>
<filter id="filter0_i_18_4830" x="2.05505" y="3.28467" width="28.16" height="25.2115" filterUnits="userSpaceOnUse" color-interpolation-filters="sRGB">
<feFlood flood-opacity="0" result="BackgroundImageFix"/>
<feBlend mode="normal" in="SourceGraphic" in2="BackgroundImageFix" result="shape"/>
<feColorMatrix in="SourceAlpha" type="matrix" values="0 0 0 0 0 0 0 0 0 0 0 0 0 0 0 0 0 0 127 0" result="hardAlpha"/>
<feOffset dx="0.25" dy="-0.25"/>
<feGaussianBlur stdDeviation="0.25"/>
<feComposite in2="hardAlpha" operator="arithmetic" k2="-1" k3="1"/>
<feColorMatrix type="matrix" values="0 0 0 0 0.611765 0 0 0 0 0.564706 0 0 0 0 0.635294 0 0 0 1 0"/>
<feBlend mode="normal" in2="shape" result="effect1_innerShadow_18_4830"/>
</filter>
<filter id="filter1_ii_18_4830" x="2.05505" y="3.38467" width="27.91" height="25.2615" filterUnits="userSpaceOnUse" color-interpolation-filters="sRGB">
<feFlood flood-opacity="0" result="BackgroundImageFix"/>
<feBlend mode="normal" in="SourceGraphic" in2="BackgroundImageFix" result="shape"/>
<feColorMatrix in="SourceAlpha" type="matrix" values="0 0 0 0 0 0 0 0 0 0 0 0 0 0 0 0 0 0 127 0" result="hardAlpha"/>
<feOffset dy="-0.15"/>
<feGaussianBlur stdDeviation="0.25"/>
<feComposite in2="hardAlpha" operator="arithmetic" k2="-1" k3="1"/>
<feColorMatrix type="matrix" values="0 0 0 0 0.67451 0 0 0 0 0.513726 0 0 0 0 0.784314 0 0 0 1 0"/>
<feBlend mode="normal" in2="shape" result="effect1_innerShadow_18_4830"/>
<feColorMatrix in="SourceAlpha" type="matrix" values="0 0 0 0 0 0 0 0 0 0 0 0 0 0 0 0 0 0 127 0" result="hardAlpha"/>
<feOffset dy="0.15"/>
<feGaussianBlur stdDeviation="0.075"/>
<feComposite in2="hardAlpha" operator="arithmetic" k2="-1" k3="1"/>
<feColorMatrix type="matrix" values="0 0 0 0 0.8 0 0 0 0 0.8 0 0 0 0 0.8 0 0 0 1 0"/>
<feBlend mode="normal" in2="effect1_innerShadow_18_4830" result="effect2_innerShadow_18_4830"/>
</filter>
<filter id="filter2_f_18_4830" x="16.1564" y="3.65596" width="6.98765" height="2.44053" filterUnits="userSpaceOnUse" color-interpolation-filters="sRGB">
<feFlood flood-opacity="0" result="BackgroundImageFix"/>
<feBlend mode="normal" in="SourceGraphic" in2="BackgroundImageFix" result="shape"/>
<feGaussianBlur stdDeviation="0.1" result="effect1_foregroundBlur_18_4830"/>
</filter>
<filter id="filter3_f_18_4830" x="2.42219" y="3.70625" width="6.70042" height="2.33433" filterUnits="userSpaceOnUse" color-interpolation-filters="sRGB">
<feFlood flood-opacity="0" result="BackgroundImageFix"/>
<feBlend mode="normal" in="SourceGraphic" in2="BackgroundImageFix" result="shape"/>
<feGaussianBlur stdDeviation="0.1" result="effect1_foregroundBlur_18_4830"/>
</filter>
<linearGradient id="paint0_linear_18_4830" x1="29.965" y1="15.479" x2="2.05505" y2="15.479" gradientUnits="userSpaceOnUse">
<stop stop-color="#BFB1CA"/>
<stop offset="0.237699" stop-color="#C3B5CD"/>
<stop offset="0.256926" stop-color="#DED3E5"/>
<stop offset="0.487655" stop-color="#EBE1F1"/>
<stop offset="0.50777" stop-color="#C5B9CD"/>
<stop offset="0.740516" stop-color="#C7BCCE"/>
<stop offset="0.76011" stop-color="#EFE3F3"/>
<stop offset="1" stop-color="#E3D7E9"/>
</linearGradient>
<linearGradient id="paint1_linear_18_4830" x1="13.3909" y1="48.4851" x2="13.3909" y2="2.89496" gradientUnits="userSpaceOnUse">
<stop stop-color="#C5B2D4"/>
<stop offset="1" stop-color="#C5B2D4" stop-opacity="0"/>
</linearGradient>
<linearGradient id="paint2_linear_18_4830" x1="28.505" y1="15.9999" x2="3.49559" y2="16.1214" gradientUnits="userSpaceOnUse">
<stop stop-color="#257AC5"/>
<stop offset="0.206041" stop-color="#237BC8"/>
<stop offset="0.225408" stop-color="#4190DB"/>
<stop offset="0.485304" stop-color="#49A5F1"/>
<stop offset="0.509045" stop-color="#2484D0"/>
<stop offset="0.763942" stop-color="#2488D4"/>
<stop offset="0.787683" stop-color="#4AA6F6"/>
<stop offset="1" stop-color="#4BABFC"/>
</linearGradient>
<linearGradient id="paint3_linear_18_4830" x1="14.0269" y1="14.9903" x2="26.0243" y2="14.9903" gradientUnits="userSpaceOnUse">
<stop stop-color="#46BF86"/>
<stop offset="0.141696" stop-color="#46BF86"/>
<stop offset="0.189883" stop-color="#5CE09B"/>
<stop offset="0.717341" stop-color="#50CC8C"/>
<stop offset="0.77725" stop-color="#43BE81"/>
</linearGradient>
<linearGradient id="paint4_linear_18_4830" x1="4.02914" y1="15.4902" x2="14.0269" y2="15.4902" gradientUnits="userSpaceOnUse">
<stop stop-color="#61E7A1"/>
<stop offset="0.480822" stop-color="#61E7A1"/>
<stop offset="0.533958" stop-color="#46C687"/>
<stop offset="1" stop-color="#46C687"/>
</linearGradient>
<linearGradient id="paint5_linear_18_4830" x1="22.0252" y1="18.5627" x2="26.0243" y2="18.5627" gradientUnits="userSpaceOnUse">
<stop stop-color="#4EC88C"/>
<stop offset="0.320024" stop-color="#4EC88C"/>
<stop offset="0.441145" stop-color="#42B483"/>
<stop offset="1" stop-color="#45B683"/>
</linearGradient>
<linearGradient id="paint6_linear_18_4830" x1="23.025" y1="21.4889" x2="26.0243" y2="21.4889" gradientUnits="userSpaceOnUse">
<stop stop-color="#4BBD8E"/>
<stop offset="0.0621" stop-color="#4BBD8E"/>
<stop offset="0.119405" stop-color="#43B385"/>
</linearGradient>
</defs>
</svg>

<svg width="100%" height="100%" viewBox="0 0 32 32" xmlns="http://www.w3.org/2000/svg"><g filter="url(#a)"><path fill="url(#b)" d="m2.575 5.335 6.176-1.762a1 1 0 0 1 .548 0l6.457 1.842a1 1 0 0 0 .549 0l6.445-1.842a1 1 0 0 1 .55 0l6.155 1.762c.3.08.51.35.51.66v21.82c0 .44-.42.77-.85.66l-5.79-1.883a1 1 0 0 0-.584-.01l-6.43 1.834a1 1 0 0 1-.55 0L9.318 26.57a1 1 0 0 0-.585.01l-5.829 1.896a.684.684 0 0 1-.85-.66V5.995c0-.31.22-.58.52-.66"/></g><g filter="url(#c)"><path fill="url(#d)" d="m2.575 5.335 6.176-1.762a1 1 0 0 1 .548 0l6.457 1.842a1 1 0 0 0 .549 0l6.445-1.842a1 1 0 0 1 .55 0l6.155 1.762c.3.08.51.35.51.66v21.82c0 .44-.42.77-.85.66l-5.79-1.883a1 1 0 0 0-.584-.01l-6.43 1.834a1 1 0 0 1-.55 0L9.318 26.57a1 1 0 0 0-.585.01l-5.829 1.896a.684.684 0 0 1-.85-.66V5.995c0-.31.22-.58.52-.66"/></g><path fill="url(#e)" d="M4.005 6.835 8.639 5.62a1.5 1.5 0 0 1 .79.009l6.158 1.749a1.5 1.5 0 0 0 .816 0l6.227-1.753a1.5 1.5 0 0 1 .792-.006l4.573 1.215c.3.08.51.35.51.66v18.172c0 .22-.114.516-.466.422l-4.598-1.463a1.5 1.5 0 0 0-.865-.013l-6.169 1.755a1.5 1.5 0 0 1-.824-.001L9.461 24.61a1.5 1.5 0 0 0-.858.009l-4.442 1.377c-.336.082-.666-.097-.666-.547V7.495c0-.31.21-.58.51-.66"/><path fill="url(#f)" d="m14.905 15.605-.53.53c-.23.23-.35.53-.35.85s.13.63.35.85l.53.53a.4.4 0 0 0 .29.12h.43c.22 0 .4.18.4.4v2.19c0 .22.18.4.4.4h.43a.4.4 0 0 0 .29-.12l.41-.41c.3-.3.47-.71.47-1.14v-1.24c0-.06.01-.12.04-.18l.91-1.83c.03-.06.04-.12.04-.18v-.5c0-.22.18-.4.4-.4h.19c.22 0 .4.18.4.4v.19c0 .22.18.4.4.4h.19c.22 0 .4-.18.4-.4v-.19c0-.22.18-.4.4-.4h.19c.22 0 .4.18.4.4v.19c0 .22.18.4.4.4h1.12c.16 0 .31-.1.37-.25l.88-2.19a.4.4 0 0 0-.37-.55c-.22 0-.4-.18-.4-.4v-1.19c0-.22.18-.4.4-.4h.19c.22 0 .4.18.4.4v.1c0 .28.22.5.5.5s.5-.22.5-.5v-1.94c0-.86-.7-1.55-1.55-1.55h-.04c-.22 0-.4.18-.4.4v.19c0 .22-.18.4-.4.4h-1.19c-.22 0-.4-.18-.4-.4 0-.33-.27-.6-.6-.6h-.4c-.55 0-1 .45-1 1v.03c0 .11-.05.22-.13.3l-1.75 1.57c-.07.07-.17.1-.27.1h-1.44c-.22 0-.4.18-.4.4v.19c0 .22-.18.4-.4.4h-.19c-.22 0-.4.18-.4.4v1.19c0 .22.18.4.4.4h.19c.22 0 .4.18.4.4v.19c0 .22-.18.4-.4.4h-.43c-.09.04-.19.08-.27.15"/><path fill="url(#g)" d="M10.525 22.485c.28 0 .5-.22.5-.5v-1.14c0-.22.12-.42.32-.52l1.23-.62c.27-.14.45-.42.45-.72 0-.31-.17-.59-.45-.72l-1.17-.58c-.25-.13-.53-.19-.81-.19h-.44a.3.3 0 0 1-.22-.09l-1.82-1.82a.3.3 0 0 1-.09-.22v-.56c0-.17.14-.31.31-.31h.38c.17 0 .31.14.31.31v.19c0 .28.22.5.5.5s.5-.22.5-.5v-.19c0-.17.14-.31.31-.31.44 0 .87-.18 1.18-.49l.29-.29c.12-.12.12-.32 0-.44l-.69-.69a.3.3 0 0 1-.09-.22v-.37c0-.28-.22-.5-.5-.5s-.5.22-.5.5-.22.5-.5.5-.5-.22-.5-.5v-.19c0-.17.14-.31.31-.31.18 0 .32-.15.31-.32l-.02-.35c-.01-.18.13-.32.31-.32h.78c.17 0 .31-.14.31-.31v-.19c0-.28.22-.5.5-.5s.5.22.5.5v2c0 .28.22.5.5.5s.5-.22.5-.5v-.37c0-.08.03-.16.09-.22l.41-.41c.32-.32.5-.75.5-1.2 0-.72-.58-1.3-1.3-1.3h-1.6c-.7 0-1.37.29-1.85.8l-.62.67c-.31.34-.75.53-1.21.53h-.1c-.17 0-.31-.14-.31-.31 0-.38-.31-.69-.69-.69h-.62c-.38 0-.69.31-.69.69v.37c0 .6-.24 1.18-.66 1.6l-.24.24a.3.3 0 0 0-.09.22v.13c0 .28.33.41.53.22l1.26-1.26c.13-.13.31-.21.5-.21.39 0-.29.32-.29.71v2.36c0 .6 1.24 1.17 1.66 1.59l1.25 1.25c.06.06.09.14.09.22v1.12c0 .48.19.95.53 1.29l.38.38c.06.06.09.14.09.22v1.37c-.02.25.21.47.48.47"/><path fill="url(#h)" d="M22.025 17.795v.21c0 .31.11.61.3.85l.21.25c.3.37.79.54 1.25.43a.31.31 0 0 0 .24-.3v-.37c0-.16.12-.29.27-.31l.15-.02c.31-.03.58.21.58.52 0 .24.17.46.41.51l.22.05c.19.04.37-.1.37-.3v-.84c0-.55-.45-1-1-1h-.86c-.09 0-.17.04-.23.1l-.37.41a.31.31 0 0 1-.54-.21c0-.17-.14-.31-.31-.31h-.38c-.17.02-.31.16-.31.33"/><path fill="url(#i)" d="M23.025 21.325v.67c0 .28.22.5.5.5h2c.28 0 .5-.22.5-.5v-.95a.56.56 0 0 0-.56-.56h-1.61c-.46 0-.83.38-.83.84"/><g filter="url(#j)"><path stroke="#EAE4EE" stroke-linecap="round" stroke-width=".15" d="m16.432 5.822 6.437-1.891"/></g><g filter="url(#k)"><path stroke="#EAE4EE" stroke-linecap="round" stroke-width=".15" d="m2.697 5.766 6.15-1.785"/></g><defs><linearGradient id="b" x1="29.965" x2="2.055" y1="15.479" y2="15.479" gradientUnits="userSpaceOnUse"><stop stop-color="#BFB1CA"/><stop offset=".238" stop-color="#C3B5CD"/><stop offset=".257" stop-color="#DED3E5"/><stop offset=".488" stop-color="#EBE1F1"/><stop offset=".508" stop-color="#C5B9CD"/><stop offset=".741" stop-color="#C7BCCE"/><stop offset=".76" stop-color="#EFE3F3"/><stop offset="1" stop-color="#E3D7E9"/></linearGradient><linearGradient id="d" x1="13.391" x2="13.391" y1="48.485" y2="2.895" gradientUnits="userSpaceOnUse"><stop stop-color="#C5B2D4"/><stop offset="1" stop-color="#C5B2D4" stop-opacity="0"/></linearGradient><linearGradient id="e" x1="28.505" x2="3.496" y1="16" y2="16.121" gradientUnits="userSpaceOnUse"><stop stop-color="#257AC5"/><stop offset=".206" stop-color="#237BC8"/><stop offset=".225" stop-color="#4190DB"/><stop offset=".485" stop-color="#49A5F1"/><stop offset=".509" stop-color="#2484D0"/><stop offset=".764" stop-color="#2488D4"/><stop offset=".788" stop-color="#4AA6F6"/><stop offset="1" stop-color="#4BABFC"/></linearGradient><linearGradient id="f" x1="14.027" x2="26.024" y1="14.99" y2="14.99" gradientUnits="userSpaceOnUse"><stop stop-color="#46BF86"/><stop offset=".142" stop-color="#46BF86"/><stop offset=".19" stop-color="#5CE09B"/><stop offset=".717" stop-color="#50CC8C"/><stop offset=".777" stop-color="#43BE81"/></linearGradient><linearGradient id="g" x1="4.029" x2="14.027" y1="15.49" y2="15.49" gradientUnits="userSpaceOnUse"><stop stop-color="#61E7A1"/><stop offset=".481" stop-color="#61E7A1"/><stop offset=".534" stop-color="#46C687"/><stop offset="1" stop-color="#46C687"/></linearGradient><linearGradient id="h" x1="22.025" x2="26.024" y1="18.563" y2="18.563" gradientUnits="userSpaceOnUse"><stop stop-color="#4EC88C"/><stop offset=".32" stop-color="#4EC88C"/><stop offset=".441" stop-color="#42B483"/><stop offset="1" stop-color="#45B683"/></linearGradient><linearGradient id="i" x1="23.025" x2="26.024" y1="21.489" y2="21.489" gradientUnits="userSpaceOnUse"><stop stop-color="#4BBD8E"/><stop offset=".062" stop-color="#4BBD8E"/><stop offset=".119" stop-color="#43B385"/></linearGradient><filter id="a" width="28.16" height="25.212" x="2.055" y="3.285" color-interpolation-filters="sRGB" filterUnits="userSpaceOnUse"><feFlood flood-opacity="0" result="BackgroundImageFix"/><feBlend in="SourceGraphic" in2="BackgroundImageFix" result="shape"/><feColorMatrix in="SourceAlpha" result="hardAlpha" values="0 0 0 0 0 0 0 0 0 0 0 0 0 0 0 0 0 0 127 0"/><feOffset dx=".25" dy="-.25"/><feGaussianBlur stdDeviation=".25"/><feComposite in2="hardAlpha" k2="-1" k3="1" operator="arithmetic"/><feColorMatrix values="0 0 0 0 0.611765 0 0 0 0 0.564706 0 0 0 0 0.635294 0 0 0 1 0"/><feBlend in2="shape" result="effect1_innerShadow_18_4830"/></filter><filter id="c" width="27.91" height="25.262" x="2.055" y="3.385" color-interpolation-filters="sRGB" filterUnits="userSpaceOnUse"><feFlood flood-opacity="0" result="BackgroundImageFix"/><feBlend in="SourceGraphic" in2="BackgroundImageFix" result="shape"/><feColorMatrix in="SourceAlpha" result="hardAlpha" values="0 0 0 0 0 0 0 0 0 0 0 0 0 0 0 0 0 0 127 0"/><feOffset dy="-.15"/><feGaussianBlur stdDeviation=".25"/><feComposite in2="hardAlpha" k2="-1" k3="1" operator="arithmetic"/><feColorMatrix values="0 0 0 0 0.67451 0 0 0 0 0.513726 0 0 0 0 0.784314 0 0 0 1 0"/><feBlend in2="shape" result="effect1_innerShadow_18_4830"/><feColorMatrix in="SourceAlpha" result="hardAlpha" values="0 0 0 0 0 0 0 0 0 0 0 0 0 0 0 0 0 0 127 0"/><feOffset dy=".15"/><feGaussianBlur stdDeviation=".075"/><feComposite in2="hardAlpha" k2="-1" k3="1" operator="arithmetic"/><feColorMatrix values="0 0 0 0 0.8 0 0 0 0 0.8 0 0 0 0 0.8 0 0 0 1 0"/><feBlend in2="effect1_innerShadow_18_4830" result="effect2_innerShadow_18_4830"/></filter><filter id="j" width="6.988" height="2.441" x="16.156" y="3.656" color-interpolation-filters="sRGB" filterUnits="userSpaceOnUse"><feFlood flood-opacity="0" result="BackgroundImageFix"/><feBlend in="SourceGraphic" in2="BackgroundImageFix" result="shape"/><feGaussianBlur result="effect1_foregroundBlur_18_4830" stdDeviation=".1"/></filter><filter id="k" width="6.7" height="2.334" x="2.422" y="3.706" color-interpolation-filters="sRGB" filterUnits="userSpaceOnUse"><feFlood flood-opacity="0" result="BackgroundImageFix"/><feBlend in="SourceGraphic" in2="BackgroundImageFix" result="shape"/><feGaussianBlur result="effect1_foregroundBlur_18_4830" stdDeviation=".1"/></filter></defs></svg>
